X: 614
T:John Brady's
R:reel
D:John Williams: Steam
Z:Transcribed by Dave Marshall
M:C|
N:http://www.fiddletech.com/music/abcproj.abc    2002-12-22 15:29:03 UT
N:Posted to the woodenflute mailing list December 2002
K:G
|: e4- edBA | ~G3A BABd | e~a3 bagb | agea gedB |
deeg edBA | ~G3A BABd | e~a3 gedg |1 edBA G4 :|2 edBA G3e |
|: d~G3 FDcA | B~g3 fdaf | d~g3 bgag | gfge fdcA |
d~G3 FDcA | B~g3 fdaf | e~a3 gedg |1 edBA G2 ~G2 :|2 edBA G4 |
<end>
<start>
